; generated by PrusaSlicer 2.5.0+linux-x64-GTK3 on 2022-11-11 at 16:32:44 UTC

; 

; external perimeters extrusion width = 0.45mm
; perimeters extrusion width = 0.45mm
; infill extrusion width = 0.45mm
; solid infill extrusion width = 0.45mm
; top infill extrusion width = 0.40mm
; first layer extrusion width = 0.42mm

; external perimeters extrusion width = 0.45mm
; perimeters extrusion width = 0.45mm
; infill extrusion width = 0.45mm
; solid infill extrusion width = 0.45mm
; top infill extrusion width = 0.40mm
; first layer extrusion width = 0.42mm

M73 P0 R165
M73 Q0 S165
M201 X1000 Y1000 Z200 E5000 ; sets maximum accelerations, mm/sec^2
M203 X200 Y200 Z12 E120 ; sets maximum feedrates, mm / sec
M204 P1250 R1250 T1250 ; sets acceleration (P, T) and retract acceleration (R), mm/sec^2
M205 X8.00 Y8.00 Z0.40 E4.50 ; sets the jerk limits, mm/sec
M205 S0 T0 ; sets the minimum extruding and travel feed rate, mm/sec
M107
;TYPE:Custom
M862.3 P "MK3S" ; printer model check
M862.1 P0.4 ; nozzle diameter check
M115 U3.10.1 ; tell printer latest fw version
G90 ; use absolute coordinates
M83 ; extruder relative mode
M104 S215 ; set extruder temp
M140 S60 ; set bed temp
M190 S60 ; wait for bed temp
M109 S215 ; wait for extruder temp
G28 W ; home all without mesh bed level
G80 ; mesh bed leveling
G1 Y-3.0 F1000.0 ; go outside print area
G92 E0.0
G1 X60.0 E9.0 F1000.0 ; intro line
G1 X100.0 E12.5 F1000.0 ; intro line
G92 E0.0
M221 S95

; Don't change E values below. Excessive value can damage the printer.
M907 E430 ; set extruder motor current
G21 ; set units to millimeters
G90 ; use absolute coordinates
M83 ; use relative distances for extrusion
M900 K0.05 ; Filament gcode LA 1.5
M900 K30 ; Filament gcode LA 1.0
M107
;LAYER_CHANGE
;Z:0.2
;HEIGHT:0.2
;BEFORE_LAYER_CHANGE
G92 E0.0
;0.2


G1 E-.8 F2100
G1 Z.4 F10800
;AFTER_LAYER_CHANGE
;0.2
G1 X61.587 Y57.319
G1 Z.2
G1 E.8 F2100
M204 S1000
;TYPE:Skirt/Brim
;WIDTH:0.42
G1 F1200
G1 X62.319 Y56.587 E.03246
G1 X63.385 Y55.972 E.03858
G1 X64.385 Y55.704 E.03246
G1 X65 Y55.623 E.01946
G1 X185 Y55.623 E3.76252
G1 X185.615 Y55.704 E.01946
M73 P0 R164
G1 X186.615 Y55.972 E.03246
G1 X187.681 Y56.587 E.03858
G1 X188.413 Y57.319 E.03246
G1 X189.028 Y58.385 E.03858
G1 X189.296 Y59.385 E.03246
G1 X189.377 Y60 E.01946
G1 X189.377 Y150 E2.82189
G1 X189.296 Y150.615 E.01946
G1 X189.028 Y151.615 E.03246
G1 X188.413 Y152.681 E.03858
G1 X187.681 Y153.413 E.03246
G1 X186.615 Y154.028 E.03858
G1 X185.615 Y154.296 E.03246
G1 X185 Y154.377 E.01946
G1 X65 Y154.377 E3.76252
G1 X64.385 Y154.296 E.01946
G1 X63.385 Y154.028 E.03246
G1 X62.319 Y153.413 E.03858
G1 X61.587 Y152.681 E.03246
G1 X60.972 Y151.615 E.03858
G1 X60.704 Y150.615 E.03246
G1 X60.623 Y150 E.01946
G1 X60.623 Y60 E2.82189
G1 X60.704 Y59.385 E.01946
G1 X60.972 Y58.385 E.03246
G1 X61.557 Y57.371 E.0367
; printing object front_HX1K-Cube.stl id:0 copy 0
;WIPE_START
G1 F8640
G1 X62.319 Y56.587 E-.25246
G1 X63.385 Y55.972 E-.28411
G1 X64.319 Y55.721 E-.22343
;WIPE_END
G1 E-.04 F2100
G1 Z.6 F10800
G1 X128.974 Y59.407
G1 Z.2
G1 E.8 F2100
;TYPE:Perimeter
;WIDTH:0.419999
G1 F1200
G1 X129.407 Y58.974 E.01924
G1 X130.104 Y58.787 E.0226
G1 X184.896 Y58.787 E1.71799
G1 X185.593 Y58.974 E.0226
G1 X186.026 Y59.407 E.01924
G1 X186.213 Y60.104 E.0226
G1 X186.213 Y149.896 E2.81538
G1 X186.026 Y150.593 E.0226
G1 X185.593 Y151.026 E.01924
G1 X184.896 Y151.213 E.0226
G1 X130.104 Y151.213 E1.71799
G1 X129.407 Y151.026 E.0226
G1 X128.974 Y150.593 E.01924
G1 X128.787 Y149.896 E.0226
G1 X128.787 Y60.104 E2.81538
G1 X128.958 Y59.465 E.02072
G1 X128.636 Y59.212 F10800
;TYPE:External perimeter
G1 F1200
G1 X129.212 Y58.636 E.02557
G1 X130.054 Y58.41 E.02732
G1 X184.946 Y58.41 E1.7211
G1 X185.788 Y58.636 E.02732
G1 X186.364 Y59.212 E.02557
G1 X186.59 Y60.054 E.02732
G1 X186.59 Y149.946 E2.8185
G1 X186.364 Y150.788 E.02732
G1 X185.788 Y151.364 E.02557
G1 X184.946 Y151.59 E.02732
G1 X130.054 Y151.59 E1.7211
G1 X129.212 Y151.364 E.02732
G1 X128.636 Y150.788 E.02557
G1 X128.41 Y149.946 E.02732
G1 X128.41 Y60.054 E2.8185
G1 X128.62 Y59.27 E.02544
M73 Q0 S164
G1 X129.036 Y59.213 F10800
;WIPE_START
G1 F8640
G1 X129.212 Y58.636 E-.20043
G1 X130.054 Y58.41 E-.20122
G1 X131.606 Y58.41 E-.35835
;WIPE_END
G1 E-.04 F2100
G1 Z.6 F10800
G1 X133.733 Y75.698
G1 Z.2
G1 E.8 F2100
;TYPE:Perimeter
G1 F1200
G1 X133.779 Y75.512 E.006
G1 X133.939 Y75.326 E.00769
G1 X134.203 Y75.218 E.00895
G1 X134.279 Y75.213 E.00236
G1 X180.721 Y75.213 E1.45618
G1 X180.969 Y75.27 E.00798
G1 X181.148 Y75.407 E.00704
G1 X181.27 Y75.639 E.00824
G1 X181.287 Y75.779 E.0044
G1 X181.287 Y138.221 E1.95785
G1 X181.221 Y138.488 E.0086
G1 X181.061 Y138.674 E.00769
G1 X180.797 Y138.782 E.00895
G1 X180 Y138.787 E.02498
G1 X134.279 Y138.787 E1.43356
G1 X134.12 Y138.764 E.00502
G1 X133.939 Y138.674 E.00634
G1 X133.779 Y138.488 E.00769
G1 X133.713 Y138.221 E.0086
G1 X133.718 Y75.756 E1.95855
G1 X134.09 Y75.779 F10800
;TYPE:External perimeter
M73 P0 R163
G1 F1200
G1 X134.136 Y75.655 E.00415
G1 X134.279 Y75.59 E.00489
G1 X180.721 Y75.59 E1.45618
G1 X180.864 Y75.655 E.00489
G1 X180.91 Y75.779 E.00415
G1 X180.91 Y138.221 E1.95785
G1 X180.863 Y138.345 E.00415
G1 X180.721 Y138.41 E.00489
G1 X134.279 Y138.41 E1.45618
G1 X134.226 Y138.402 E.00167
G1 X134.112 Y138.31 E.00459
G1 X134.09 Y138.221 E.00287
G1 X134.09 Y75.839 E1.95597
G1 X133.994 Y75.687 F10800
;WIPE_START
G1 F8640
G1 X134.136 Y75.655 E-.04381
G1 X134.279 Y75.59 E-.03603
G1 X137.224 Y75.59 E-.68016
;WIPE_END
G1 E-.04 F2100
G1 Z.6 F10800
G1 X186.013 Y59.795
G1 Z.2
G1 E.8 F2100
;TYPE:Solid infill
;WIDTH:0.420651
G1 F1200
G1 X185.445 Y59.227 E.02521
G1 X184.859 Y59.07 E.01907
G1 X184.754 Y59.07 E.0033
G1 X185.93 Y60.246 E.05223
G1 X185.93 Y60.78 E.01678
G1 X184.22 Y59.07 E.07596
G1 X183.686 Y59.07 E.01678
G1 X185.93 Y61.314 E.09969
G1 X185.93 Y61.848 E.01678
G1 X183.152 Y59.07 E.12342
G1 X182.617 Y59.07 E.01678
G1 X185.93 Y62.383 E.14715
G1 X185.93 Y62.917 E.01678
G1 X182.083 Y59.07 E.17087
G1 X181.549 Y59.07 E.01678
G1 X185.93 Y63.451 E.1946
G1 X185.93 Y63.985 E.01678
G1 X181.015 Y59.07 E.21833
G1 X180.481 Y59.07 E.01678
G1 X185.93 Y64.519 E.24206
G1 X185.93 Y65.054 E.01678
G1 X179.946 Y59.07 E.26579
G1 X179.412 Y59.07 E.01678
G1 X185.93 Y65.588 E.28951
G1 X185.93 Y66.122 E.01678
G1 X178.878 Y59.07 E.31324
G1 X178.344 Y59.07 E.01678
G1 X185.93 Y66.656 E.33697
G1 X185.93 Y67.19 E.01678
G1 X177.81 Y59.07 E.3607
G1 X177.275 Y59.07 E.01678
G1 X185.93 Y67.725 E.38442
G1 X185.93 Y68.259 E.01678
G1 X176.741 Y59.07 E.40815
G1 X176.207 Y59.07 E.01678
G1 X185.93 Y68.793 E.43188
G1 X185.93 Y69.327 E.01678
G1 X175.673 Y59.07 E.45561
G1 X175.139 Y59.07 E.01678
G1 X185.93 Y69.861 E.47934
G1 X185.93 Y70.395 E.01678
G1 X174.605 Y59.07 E.50306
G1 X174.07 Y59.07 E.01678
G1 X185.93 Y70.93 E.52679
G1 X185.93 Y71.464 E.01678
G1 X173.536 Y59.07 E.55052
G1 X173.002 Y59.07 E.01678
G1 X185.93 Y71.998 E.57425
G1 X185.93 Y72.532 E.01678
G1 X172.468 Y59.07 E.59798
G1 X171.934 Y59.07 E.01678
G1 X185.93 Y73.066 E.6217
G1 X185.93 Y73.601 E.01678
G1 X171.399 Y59.07 E.64543
G1 X170.865 Y59.07 E.01678
G1 X185.93 Y74.135 E.66916
G1 X185.93 Y74.669 E.01678
M73 P1 R163
M73 Q1 S164
G1 X170.331 Y59.07 E.69289
G1 X169.797 Y59.07 E.01678
G1 X185.93 Y75.203 E.71662
G1 X185.93 Y75.737 E.01678
G1 X169.263 Y59.07 E.74034
G1 X168.728 Y59.07 E.01678
G1 X185.93 Y76.272 E.76407
G1 X185.93 Y76.806 E.01678
G1 X168.194 Y59.07 E.7878
G1 X167.66 Y59.07 E.01678
G1 X185.93 Y77.34 E.81153
G1 X185.93 Y77.874 E.01678
G1 X167.126 Y59.07 E.83525
G1 X166.592 Y59.07 E.01678
G1 X185.93 Y78.408 E.85898
G1 X185.93 Y78.943 E.01678
G1 X166.057 Y59.07 E.88271
G1 X165.523 Y59.07 E.01678
G1 X185.93 Y79.477 E.90644
G1 X185.93 Y80.011 E.01678
G1 X164.989 Y59.07 E.93017
G1 X164.455 Y59.07 E.01678
G1 X180.315 Y74.93 E.70449
G1 X179.781 Y74.93 E.01678
G1 X163.921 Y59.07 E.70449
G1 X163.386 Y59.07 E.01678
G1 X179.247 Y74.93 E.70449
G1 X178.713 Y74.93 E.01678
G1 X162.852 Y59.07 E.70449
G1 X162.318 Y59.07 E.01678
M73 Q1 S163
G1 X178.178 Y74.93 E.70449
G1 X177.644 Y74.93 E.01678
G1 X161.784 Y59.07 E.70449
G1 X161.25 Y59.07 E.01678
G1 X177.11 Y74.93 E.70449
G1 X176.576 Y74.93 E.01678
G1 X160.716 Y59.07 E.70449
G1 X160.181 Y59.07 E.01678
G1 X176.042 Y74.93 E.70449
G1 X175.507 Y74.93 E.01678
G1 X159.647 Y59.07 E.70449
G1 X159.113 Y59.07 E.01678
G1 X174.973 Y74.93 E.70449
G1 X174.439 Y74.93 E.01678
G1 X158.579 Y59.07 E.70449
G1 X158.045 Y59.07 E.01678
G1 X173.905 Y74.93 E.70449
G1 X173.371 Y74.93 E.01678
M73 P1 R162
G1 X157.51 Y59.07 E.70449
G1 X156.976 Y59.07 E.01678
G1 X172.836 Y74.93 E.70449
G1 X172.302 Y74.93 E.01678
G1 X156.442 Y59.07 E.70449
G1 X155.908 Y59.07 E.01678
G1 X171.768 Y74.93 E.70449
G1 X171.234 Y74.93 E.01678
G1 X155.374 Y59.07 E.70449
G1 X154.839 Y59.07 E.01678
G1 X170.7 Y74.93 E.70449
G1 X170.165 Y74.93 E.01678
G1 X154.305 Y59.07 E.70449
G1 X153.771 Y59.07 E.01678
G1 X169.631 Y74.93 E.70449
G1 X169.097 Y74.93 E.01678
G1 X153.237 Y59.07 E.70449
G1 X152.703 Y59.07 E.01678
G1 X168.563 Y74.93 E.70449
G1 X168.029 Y74.93 E.01678
G1 X152.168 Y59.07 E.70449
G1 X151.634 Y59.07 E.01678
G1 X167.494 Y74.93 E.70449
G1 X166.96 Y74.93 E.01678
G1 X151.1 Y59.07 E.70449
G1 X150.566 Y59.07 E.01678
G1 X166.426 Y74.93 E.70449
G1 X165.892 Y74.93 E.01678
G1 X150.032 Y59.07 E.70449
G1 X149.497 Y59.07 E.01678
G1 X165.358 Y74.93 E.70449
G1 X164.824 Y74.93 E.01678
G1 X148.963 Y59.07 E.70449
G1 X148.429 Y59.07 E.01678
G1 X164.289 Y74.93 E.70449
G1 X163.755 Y74.93 E.01678
G1 X147.895 Y59.07 E.70449
G1 X147.361 Y59.07 E.01678
G1 X163.221 Y74.93 E.70449
G1 X162.687 Y74.93 E.01678
G1 X146.827 Y59.07 E.70449
G1 X146.292 Y59.07 E.01678
G1 X162.153 Y74.93 E.70449
G1 X161.618 Y74.93 E.01678
G1 X145.758 Y59.07 E.70449
G1 X145.224 Y59.07 E.01678
G1 X161.084 Y74.93 E.70449
G1 X160.55 Y74.93 E.01678
G1 X144.69 Y59.07 E.70449
G1 X144.156 Y59.07 E.01678
G1 X160.016 Y74.93 E.70449
G1 X159.482 Y74.93 E.01678
G1 X143.621 Y59.07 E.70449
G1 X143.087 Y59.07 E.01678
G1 X158.947 Y74.93 E.70449
G1 X158.413 Y74.93 E.01678
G1 X142.553 Y59.07 E.70449
G1 X142.019 Y59.07 E.01678
G1 X157.879 Y74.93 E.70449
G1 X157.345 Y74.93 E.01678
G1 X141.485 Y59.07 E.70449
G1 X140.95 Y59.07 E.01678
G1 X156.811 Y74.93 E.70449
G1 X156.276 Y74.93 E.01678
G1 X140.416 Y59.07 E.70449
G1 X139.882 Y59.07 E.01678
G1 X155.742 Y74.93 E.70449
G1 X155.208 Y74.93 E.01678
G1 X139.348 Y59.07 E.70449
G1 X138.814 Y59.07 E.01678
G1 X154.674 Y74.93 E.70449
G1 X154.14 Y74.93 E.01678
G1 X138.279 Y59.07 E.70449
G1 X137.745 Y59.07 E.01678
G1 X153.605 Y74.93 E.70449
G1 X153.071 Y74.93 E.01678
G1 X137.211 Y59.07 E.70449
G1 X136.677 Y59.07 E.01678
G1 X152.537 Y74.93 E.70449
G1 X152.003 Y74.93 E.01678
G1 X136.143 Y59.07 E.70449
G1 X135.608 Y59.07 E.01678
G1 X151.469 Y74.93 E.70449
G1 X150.935 Y74.93 E.01678
G1 X135.074 Y59.07 E.70449
G1 X134.54 Y59.07 E.01678
M73 Q1 S162
G1 X150.4 Y74.93 E.70449
G1 X149.866 Y74.93 E.01678
G1 X134.006 Y59.07 E.70449
G1 X133.472 Y59.07 E.01678
G1 X149.332 Y74.93 E.70449
G1 X148.798 Y74.93 E.01678
G1 X132.938 Y59.07 E.70449
G1 X132.403 Y59.07 E.01678
G1 X148.264 Y74.93 E.70449
G1 X147.729 Y74.93 E.01678
G1 X131.869 Y59.07 E.70449
G1 X131.335 Y59.07 E.01678
G1 X147.195 Y74.93 E.70449
G1 X146.661 Y74.93 E.01678
G1 X130.801 Y59.07 E.70449
G1 X130.267 Y59.07 E.01678
G1 X146.127 Y74.93 E.70449
G1 X145.593 Y74.93 E.01678
M73 P1 R161
G1 X129.819 Y59.156 E.70065
G1 X129.554 Y59.227 E.00861
G1 X129.455 Y59.326 E.00441
G1 X145.058 Y74.93 E.69309
G1 X144.524 Y74.93 E.01678
G1 X129.21 Y59.616 E.68021
G1 X129.098 Y60.038 E.0137
G1 X143.99 Y74.93 E.6615
G1 X143.456 Y74.93 E.01678
G1 X129.07 Y60.544 E.639
G1 X129.07 Y61.078 E.01678
G1 X142.922 Y74.93 E.61527
G1 X142.387 Y74.93 E.01678
G1 X129.07 Y61.613 E.59154
G1 X129.07 Y62.147 E.01678
G1 X141.853 Y74.93 E.56782
G1 X141.319 Y74.93 E.01678
M73 P2 R161
G1 X129.07 Y62.681 E.54409
G1 X129.07 Y63.215 E.01678
M73 Q2 S162
G1 X140.785 Y74.93 E.52036
G1 X140.251 Y74.93 E.01678
G1 X129.07 Y63.749 E.49663
G1 X129.07 Y64.284 E.01678
G1 X139.716 Y74.93 E.4729
G1 X139.182 Y74.93 E.01678
G1 X129.07 Y64.818 E.44918
G1 X129.07 Y65.352 E.01678
G1 X138.648 Y74.93 E.42545
G1 X138.114 Y74.93 E.01678
G1 X129.07 Y65.886 E.40172
G1 X129.07 Y66.42 E.01678
G1 X137.58 Y74.93 E.37799
G1 X137.046 Y74.93 E.01678
G1 X129.07 Y66.954 E.35426
G1 X129.07 Y67.489 E.01678
G1 X136.511 Y74.93 E.33054
G1 X135.977 Y74.93 E.01678
G1 X129.07 Y68.023 E.30681
G1 X129.07 Y68.557 E.01678
G1 X135.443 Y74.93 E.28308
G1 X134.909 Y74.93 E.01678
G1 X129.07 Y69.091 E.25935
G1 X129.07 Y69.625 E.01678
G1 X134.375 Y74.93 E.23563
G1 X134.043 Y74.963 E.01045
G1 X133.921 Y75.01 E.00414
G1 X129.07 Y70.16 E.21546
G1 X129.07 Y70.694 E.01678
G1 X133.622 Y75.245 E.20218
G1 X133.529 Y75.379 E.00511
G1 X133.451 Y75.609 E.00762
G1 X129.07 Y71.228 E.19458
G1 X129.07 Y71.762 E.01678
G1 X133.43 Y76.122 E.19367
G1 X133.43 Y76.657 E.01678
G1 X129.07 Y72.296 E.19367
G1 X129.07 Y72.831 E.01678
G1 X133.43 Y77.191 E.19367
G1 X133.43 Y77.725 E.01678
G1 X129.07 Y73.365 E.19367
G1 X129.07 Y73.899 E.01678
G1 X133.43 Y78.259 E.19367
G1 X133.43 Y78.793 E.01678
G1 X129.07 Y74.433 E.19367
G1 X129.07 Y74.967 E.01678
G1 X133.43 Y79.328 E.19367
G1 X133.43 Y79.862 E.01678
G1 X129.07 Y75.502 E.19367
G1 X129.07 Y76.036 E.01678
G1 X133.43 Y80.396 E.19367
G1 X133.43 Y80.93 E.01678
G1 X129.07 Y76.57 E.19367
G1 X129.07 Y77.104 E.01678
G1 X133.43 Y81.464 E.19367
G1 X133.43 Y81.999 E.01678
G1 X129.07 Y77.638 E.19367
G1 X129.07 Y78.173 E.01678
G1 X133.43 Y82.533 E.19367
G1 X133.43 Y83.067 E.01678
G1 X129.07 Y78.707 E.19367
G1 X129.07 Y79.241 E.01678
G1 X133.43 Y83.601 E.19367
G1 X133.43 Y84.135 E.01678
G1 X129.07 Y79.775 E.19367
G1 X129.07 Y80.309 E.01678
G1 X133.43 Y84.67 E.19367
G1 X133.43 Y85.204 E.01678
G1 X129.07 Y80.843 E.19367
G1 X129.07 Y81.378 E.01678
G1 X133.43 Y85.738 E.19367
G1 X133.43 Y86.272 E.01678
G1 X129.07 Y81.912 E.19367
G1 X129.07 Y82.446 E.01678
G1 X133.43 Y86.806 E.19367
G1 X133.43 Y87.34 E.01678
G1 X129.07 Y82.98 E.19367
G1 X129.07 Y83.514 E.01678
G1 X133.43 Y87.875 E.19367
G1 X133.43 Y88.409 E.01678
G1 X129.07 Y84.049 E.19367
G1 X129.07 Y84.583 E.01678
G1 X133.43 Y88.943 E.19367
G1 X133.43 Y89.477 E.01678
G1 X129.07 Y85.117 E.19367
G1 X129.07 Y85.651 E.01678
G1 X133.43 Y90.011 E.19367
G1 X133.43 Y90.546 E.01678
G1 X129.07 Y86.185 E.19367
G1 X129.07 Y86.72 E.01678
G1 X133.43 Y91.08 E.19367
G1 X133.43 Y91.614 E.01678
G1 X129.07 Y87.254 E.19367
G1 X129.07 Y87.788 E.01678
G1 X133.43 Y92.148 E.19367
G1 X133.43 Y92.682 E.01678
G1 X129.07 Y88.322 E.19367
G1 X129.07 Y88.856 E.01678
G1 X133.43 Y93.217 E.19367
G1 X133.43 Y93.751 E.01678
G1 X129.07 Y89.391 E.19367
G1 X129.07 Y89.925 E.01678
G1 X133.43 Y94.285 E.19367
G1 X133.43 Y94.819 E.01678
G1 X129.07 Y90.459 E.19367
G1 X129.07 Y90.993 E.01678
G1 X133.43 Y95.353 E.19367
G1 X133.43 Y95.888 E.01678
G1 X129.07 Y91.527 E.19367
G1 X129.07 Y92.062 E.01678
G1 X133.43 Y96.422 E.19367
G1 X133.43 Y96.956 E.01678
G1 X129.07 Y92.596 E.19367
G1 X129.07 Y93.13 E.01678
G1 X133.43 Y97.49 E.19367
G1 X133.43 Y98.024 E.01678
G1 X129.07 Y93.664 E.19367
G1 X129.07 Y94.198 E.01678
G1 X133.43 Y98.559 E.19367
G1 X133.43 Y99.093 E.01678
G1 X129.07 Y94.732 E.19367
G1 X129.07 Y95.267 E.01678
G1 X133.43 Y99.627 E.19367
G1 X133.43 Y100.161 E.01678
G1 X129.07 Y95.801 E.19367
G1 X129.07 Y96.335 E.01678
G1 X133.43 Y100.695 E.19367
G1 X133.43 Y101.229 E.01678
G1 X129.07 Y96.869 E.19367
G1 X129.07 Y97.403 E.01678
G1 X133.43 Y101.764 E.19367
G1 X133.43 Y102.298 E.01678
G1 X129.07 Y97.938 E.19367
G1 X129.07 Y98.472 E.01678
G1 X133.43 Y102.832 E.19367
G1 X133.43 Y103.366 E.01678
G1 X129.07 Y99.006 E.19367
G1 X129.07 Y99.54 E.01678
G1 X133.43 Y103.9 E.19367
G1 X133.43 Y104.435 E.01678
G1 X129.07 Y100.074 E.19367
G1 X129.07 Y100.609 E.01678
G1 X133.43 Y104.969 E.19367
G1 X133.43 Y105.503 E.01678
G1 X129.07 Y101.143 E.19367
G1 X129.07 Y101.677 E.01678
G1 X133.43 Y106.037 E.19367
G1 X133.43 Y106.571 E.01678
G1 X129.07 Y102.211 E.19367
G1 X129.07 Y102.745 E.01678
G1 X133.43 Y107.106 E.19367
G1 X133.43 Y107.64 E.01678
G1 X129.07 Y103.28 E.19367
G1 X129.07 Y103.814 E.01678
G1 X133.43 Y108.174 E.19367
